;FLAVOR:Marlin
;TIME:31471
;Filament used: 24.2762m
;Layer height: 0.2
;MINX:36.447
;MINY:3.888
;MINZ:0.2
;MAXX:196
;MAXY:232.382
;MAXZ:7.4
;Generated with Cura_SteamEngine 5.3.0
M140 S60
M105
M190 S60
M104 S200
M105
M109 S200
M82 ;absolute extrusion mode
M201 X500.00 Y500.00 Z100.00 E5000.00 ;Setup machine max acceleration
M203 X500.00 Y500.00 Z10.00 E50.00 ;Setup machine max feedrate
M204 P500.00 R1000.00 T500.00 ;Setup Print/Retract/Travel acceleration
M205 X8.00 Y8.00 Z0.40 E5.00 ;Setup Jerk
M220 S100 ;Reset Feedrate
M221 S100 ;Reset Flowrate

G28 ;Home

G92 E0 ;Reset Extruder
G1 Z2.0 F3000 ;Move Z Axis up
G1 X10.1 Y20 Z0.28 F5000.0 ;Move to start position
G1 X10.1 Y200.0 Z0.28 F1500.0 E15 ;Draw the first line
G1 X10.4 Y200.0 Z0.28 F5000.0 ;Move to side a little
G1 X10.4 Y20 Z0.28 F1500.0 E30 ;Draw the second line
G92 E0 ;Reset Extruder
G1 Z2.0 F3000 ;Move Z Axis up

G92 E0
G92 E0
G1 F1500 E-6.5
;LAYER_COUNT:38
;LAYER:0
M107
G0 F6000 X38.304 Y19.691 Z0.2
;TYPE:SKIRT
G1 F1500 E0
G1 F1200 X38.738 Y18.899 E0.03004
G1 X39.24 Y18.148 E0.06008
G1 X39.807 Y17.445 E0.09012
G1 X40.512 Y16.722 E0.12371
G1 X42.739 Y14.652 E0.22484
G1 X44.517 Y12.896 E0.30795
G1 X46.296 Y11.038 E0.39351
G1 X47.486 Y9.748 E0.45188
G1 X48.13 Y9.115 E0.48192
G1 X48.828 Y8.541 E0.51197
G1 X49.573 Y8.031 E0.542
G1 X50.361 Y7.589 E0.57205
G1 X51.184 Y7.219 E0.60206
G1 X52.037 Y6.923 E0.63209
G1 X52.913 Y6.703 E0.66214
G1 X53.805 Y6.562 E0.69217
G1 X54.67 Y6.501 E0.72101
G1 X55.277 Y6.488 E0.74121
G1 X61.91 Y6.489 E0.96182
G1 X62.629 Y6.501 E0.98574
G1 X63.531 Y6.556 E1.01579
G1 X64.322 Y6.672 E1.04238
G1 X65.548 Y6.9 E1.08386
G1 X68.111 Y7.339 E1.17035
G1 X70.673 Y7.703 E1.25642
G1 X73.167 Y7.986 E1.3399
G1 X75.693 Y8.201 E1.42422
G1 X78.241 Y8.344 E1.5091
G1 X80.776 Y8.415 E1.59345
G1 X83.311 Y8.415 E1.67776
G1 X85.85 Y8.342 E1.76224
G1 X88.493 Y8.193 E1.85029
G1 X89.259 Y8.136 E1.87584
G1 X89.722 Y8.112 E1.89126
G1 X90.328 Y8.099 E1.91142
G1 X99.413 Y8.098 E2.21359
G1 X101.947 Y8.026 E2.2979
G1 X104.508 Y7.881 E2.38322
G1 X106.997 Y7.669 E2.4663
G1 X109.561 Y7.377 E2.55213
G1 X112.068 Y7.02 E2.63635
G1 X114.555 Y6.594 E2.72028
G1 X117.064 Y6.091 E2.80539
G1 X119.41 Y5.56 E2.88539
G1 X120.298 Y5.4 E2.9154
G1 X121.373 Y5.313 E2.95127
G1 X121.98 Y5.3 E2.97147
G1 X128.589 Y5.301 E3.19128
G1 X129.286 Y5.311 E3.21447
G1 X130.136 Y5.359 E3.24278
G1 X131.501 Y5.493 E3.2884
G1 X134.105 Y5.715 E3.37532
G1 X136.609 Y5.856 E3.45874
G1 X140.485 Y5.937 E3.58768
G1 X142.976 Y5.902 E3.67054
G1 X145.544 Y5.793 E3.75603
G1 X148.046 Y5.616 E3.83946
G1 X150.558 Y5.367 E3.92342
G1 X153.19 Y5.03 E4.01167
G1 X154.739 Y4.804 E4.06374
G1 X155.923 Y4.701 E4.10327
G1 X156.53 Y4.688 E4.12346
G1 X162.993 Y4.688 E4.33842
G1 X163.841 Y4.699 E4.36663
G1 X164.743 Y4.752 E4.39668
G1 X165.636 Y4.884 E4.4267
G1 X166.514 Y5.095 E4.45674
G1 X167.37 Y5.383 E4.48678
G1 X168.197 Y5.745 E4.5168
G1 X168.989 Y6.179 E4.54684
G1 X169.74 Y6.681 E4.57688
G1 X170.443 Y7.248 E4.60692
G1 X171.166 Y7.953 E4.64051
G1 X173.236 Y10.18 E4.74164
G1 X174.991 Y11.958 E4.82473
G1 X176.85 Y13.737 E4.91031
G1 X178.144 Y14.932 E4.96889
G1 X178.776 Y15.576 E4.9989
G1 X179.35 Y16.274 E5.02896
G1 X179.859 Y17.019 E5.05897
G1 X180.301 Y17.807 E5.08902
G1 X180.671 Y18.631 E5.11906
G1 X180.855 Y19.133 E5.13685
G1 X181.832 Y22.029 E5.2385
G1 X182.716 Y24.416 E5.32316
G1 X183.666 Y26.775 E5.40775
G1 X184.68 Y29.1 E5.49211
G1 X185.753 Y31.379 E5.57589
G1 X186.906 Y33.662 E5.66096
G1 X188.095 Y35.86 E5.74408
G1 X189.383 Y38.085 E5.82959
G1 X190.717 Y40.248 E5.91411
G1 X192.11 Y42.37 E5.99854
G1 X193.083 Y43.762 E6.05502
G1 X193.444 Y44.295 E6.07643
G1 X193.916 Y45.065 E6.10647
G1 X194.317 Y45.874 E6.1365
G1 X194.646 Y46.715 E6.16654
G1 X194.899 Y47.582 E6.19658
G1 X195.074 Y48.468 E6.22662
G1 X195.185 Y49.691 E6.26746
G1 X195.2 Y50.33 E6.28872
G1 X195.199 Y184.415 E10.74841
G1 X195.189 Y185.138 E10.77246
G1 X195.137 Y186.04 E10.80251
G1 X195.018 Y186.86 E10.83007
G1 X194.866 Y187.676 E10.85767
G1 X194.414 Y190.318 E10.94682
G1 X194.055 Y192.842 E11.03162
G1 X193.771 Y195.348 E11.1155
G1 X193.554 Y197.902 E11.20075
G1 X193.412 Y200.429 E11.28493
G1 X193.341 Y202.964 E11.36928
G1 X193.341 Y205.499 E11.45359
G1 X193.413 Y208.018 E11.53741
G1 X193.579 Y210.61 E11.6238
G1 X193.658 Y212.002 E11.67017
G1 X193.683 Y212.62 E11.69074
G1 X193.686 Y213.349 E11.71499
G1 X193.656 Y214.063 E11.73876
G1 X193.616 Y214.637 E11.7579
G1 X193.553 Y215.263 E11.77882
G1 X193.464 Y215.886 E11.79975
G1 X193.365 Y216.469 E11.81942
G1 X193.203 Y217.242 E11.84569
G1 X193.041 Y217.867 E11.86716
G1 X192.892 Y218.39 E11.88525
G1 X192.723 Y218.927 E11.90398
G1 X192.462 Y219.646 E11.92942
G1 X192.241 Y220.2 E11.94925
G1 X191.955 Y220.85 E11.97287
G1 X191.658 Y221.453 E11.99523
G1 X191.392 Y221.958 E12.01421
G1 X191.065 Y222.533 E12.03622
G1 X190.684 Y223.137 E12.05997
G1 X190.393 Y223.571 E12.07735
G1 X190.051 Y224.051 E12.09695
G1 X189.533 Y224.716 E12.12499
G1 X189.124 Y225.206 E12.14621
G1 X188.44 Y225.948 E12.17978
G1 X187.886 Y226.492 E12.2056
G1 X187.421 Y226.92 E12.22662
G1 X186.924 Y227.339 E12.24824
G1 X186.39 Y227.763 E12.27092
G1 X185.816 Y228.187 E12.29466
G1 X185.261 Y228.558 E12.31686
G1 X184.763 Y228.872 E12.33644
G1 X184.277 Y229.16 E12.35523
G1 X183.646 Y229.497 E12.37903
G1 X183.054 Y229.789 E12.40098
G1 X182.475 Y230.052 E12.42213
G1 X181.806 Y230.322 E12.44613
G1 X181.313 Y230.504 E12.46361
G1 X180.526 Y230.763 E12.49116
G1 X180.011 Y230.909 E12.50897
G1 X179.406 Y231.063 E12.52973
G1 X178.761 Y231.205 E12.5517
G1 X178.069 Y231.326 E12.57506
G1 X177.386 Y231.425 E12.59802
G1 X176.322 Y231.522 E12.63355
G1 X175.555 Y231.552 E12.65908
G1 X174.901 Y231.557 E12.68083
G1 X174.155 Y231.529 E12.70566
G1 X173.602 Y231.492 E12.7241
G1 X172.942 Y231.427 E12.74616
G1 X170.169 Y231.059 E12.8392
G1 X167.652 Y230.794 E12.92337
G1 X165.131 Y230.601 E13.00747
G1 X162.589 Y230.478 E13.09211
G1 X160.06 Y230.428 E13.17625
G1 X157.494 Y230.449 E13.26159
G1 X154.988 Y230.541 E13.345
G1 X152.431 Y230.707 E13.43022
G1 X149.933 Y230.94 E13.51367
G1 X146.701 Y231.346 E13.62201
G1 X146.026 Y231.442 E13.64469
G1 X145.418 Y231.509 E13.66503
G1 X144.757 Y231.555 E13.68707
G1 X144.139 Y231.58 E13.70764
G1 X143.391 Y231.582 E13.73252
G1 X142.687 Y231.553 E13.75596
G1 X142.125 Y231.514 E13.77469
G1 X141.496 Y231.45 E13.79572
G1 X140.849 Y231.357 E13.81746
G1 X140.308 Y231.264 E13.83572
G1 X137.747 Y230.859 E13.92196
G1 X135.241 Y230.536 E14.006
G1 X132.702 Y230.281 E14.09087
G1 X130.144 Y230.097 E14.17617
G1 X127.649 Y229.988 E14.25923
G1 X125.078 Y229.949 E14.34475
G1 X122.546 Y229.982 E14.42897
G1 X120.016 Y230.087 E14.5132
G1 X117.477 Y230.264 E14.59785
G1 X114.956 Y230.512 E14.6821
G1 X114.196 Y230.609 E14.70758
G1 X112.792 Y230.772 E14.75459
G1 X112.018 Y230.832 E14.78042
G1 X111.282 Y230.861 E14.80491
G1 X110.623 Y230.866 E14.82683
G1 X109.877 Y230.838 E14.85166
G1 X109.327 Y230.801 E14.87
G1 X108.673 Y230.736 E14.89186
G1 X105.889 Y230.367 E14.98526
G1 X103.393 Y230.105 E15.06874
G1 X100.832 Y229.908 E15.15417
G1 X98.317 Y229.787 E15.23791
G1 X95.779 Y229.737 E15.32234
G1 X93.213 Y229.758 E15.40769
G1 X90.708 Y229.85 E15.49106
G1 X88.127 Y230.017 E15.57709
G1 X85.662 Y230.248 E15.65943
G1 X82.333 Y230.668 E15.77103
G1 X81.678 Y230.762 E15.79304
G1 X80.625 Y230.858 E15.82821
G1 X79.858 Y230.888 E15.85374
G1 X79.202 Y230.893 E15.87556
G1 X78.456 Y230.865 E15.90039
G1 X77.906 Y230.828 E15.91872
G1 X77.347 Y230.775 E15.9374
G1 X76.622 Y230.674 E15.96175
G1 X75.978 Y230.563 E15.98348
G1 X75.272 Y230.417 E16.00746
G1 X74.737 Y230.282 E16.02581
G1 X74.093 Y230.1 E16.04807
G1 X73.519 Y229.919 E16.06809
G1 X72.846 Y229.674 E16.09191
G1 X72.273 Y229.445 E16.11243
G1 X71.617 Y229.155 E16.13629
G1 X71.023 Y228.861 E16.15833
G1 X70.517 Y228.594 E16.17736
G1 X69.958 Y228.276 E16.19875
G1 X69.34 Y227.888 E16.22302
G1 X68.902 Y227.594 E16.24057
G1 X68.411 Y227.242 E16.26066
G1 X67.754 Y226.729 E16.28839
G1 X67.294 Y226.343 E16.30836
G1 X66.875 Y225.97 E16.32702
G1 X66.343 Y225.455 E16.35164
G1 X65.903 Y225 E16.3727
G1 X65.453 Y224.503 E16.395
G1 X65.023 Y223.983 E16.41744
G1 X64.667 Y223.527 E16.43668
G1 X64.343 Y223.089 E16.4548
G1 X63.938 Y222.489 E16.47888
G1 X63.613 Y221.975 E16.4991
G1 X63.258 Y221.368 E16.52249
G1 X62.942 Y220.768 E16.54505
G1 X62.669 Y220.212 E16.56565
G1 X61.483 Y217.704 E16.65792
G1 X60.342 Y215.46 E16.74165
G1 X59.113 Y213.2 E16.82721
G1 X57.85 Y211.027 E16.91081
G1 X56.491 Y208.834 E16.99662
G1 X55.12 Y206.757 E17.07939
G1 X53.635 Y204.641 E17.16537
G1 X52.13 Y202.616 E17.24929
G1 X50.571 Y200.64 E17.333
G1 X48.933 Y198.681 E17.41794
G1 X47.233 Y196.762 E17.5032
G1 X45.518 Y194.931 E17.58665
G1 X43.645 Y193.041 E17.67515
G1 X42.862 Y192.272 E17.71165
G1 X42.246 Y191.611 E17.7417
G1 X41.691 Y190.899 E17.77173
G1 X41.202 Y190.14 E17.80176
G1 X40.782 Y189.341 E17.83178
G1 X40.433 Y188.507 E17.86185
G1 X40.16 Y187.646 E17.89189
G1 X39.965 Y186.765 E17.9219
G1 X39.847 Y185.869 E17.95196
G1 X39.815 Y185.309 E17.97062
G1 X39.8 Y184.67 E17.99188
G1 X39.8 Y54.169 E22.33236
G1 X39.763 Y51.563 E22.41904
G1 X39.654 Y48.995 E22.50453
G1 X39.477 Y46.493 E22.58795
G1 X39.228 Y43.98 E22.67195
G1 X38.9 Y41.417 E22.75789
G1 X38.509 Y38.932 E22.84156
G1 X38.048 Y36.452 E22.92545
G1 X37.483 Y33.82 E23.01499
G1 X37.333 Y32.929 E23.04504
G1 X37.26 Y31.965 E23.0772
G1 X37.247 Y31.358 E23.09739
G1 X37.248 Y24.75 E23.31717
G1 X37.258 Y24.047 E23.34056
G1 X37.311 Y23.145 E23.37061
G1 X37.443 Y22.252 E23.40063
G1 X37.654 Y21.374 E23.43067
G1 X37.942 Y20.518 E23.46071
G1 X38.304 Y19.691 E23.49073
G0 F6000 X37.953 Y19.499
G1 F1200 X38.405 Y18.677 E23.52193
G1 X38.907 Y17.926 E23.55198
G1 X39.496 Y17.194 E23.58323
G1 X40.24 Y16.429 E23.61872
G1 X42.458 Y14.367 E23.71944
G1 X44.236 Y12.611 E23.80256
G1 X46.007 Y10.761 E23.88774
G1 X47.206 Y9.463 E23.94651
G1 X47.876 Y8.806 E23.97772
G1 X48.602 Y8.211 E24.00894
G1 X49.377 Y7.682 E24.04015
G1 X50.197 Y7.224 E24.07139
G1 X51.02 Y6.854 E24.1014
G1 X51.906 Y6.545 E24.13261
G1 X52.816 Y6.315 E24.16383
G1 X53.777 Y6.163 E24.19619
G1 X54.661 Y6.101 E24.22567
G1 X55.277 Y6.088 E24.24616
G1 X61.917 Y6.089 E24.46701
G1 X62.653 Y6.102 E24.49149
G1 X63.589 Y6.16 E24.52268
G1 X64.395 Y6.279 E24.54978
G1 X65.616 Y6.506 E24.59109
G1 X68.167 Y6.943 E24.67717
G1 X70.729 Y7.307 E24.76324
G1 X73.201 Y7.587 E24.84598
G1 X75.727 Y7.803 E24.9303
G1 X78.252 Y7.944 E25.01442
G1 X80.787 Y8.015 E25.09876
G1 X83.3 Y8.015 E25.18235
G1 X85.839 Y7.942 E25.26683
G1 X88.463 Y7.794 E25.35424
G1 X89.238 Y7.737 E25.38009
G1 X89.713 Y7.712 E25.39591
G1 X90.328 Y7.699 E25.41637
G1 X99.402 Y7.698 E25.71817
G1 X101.936 Y7.626 E25.80249
G1 X104.474 Y7.482 E25.88704
G1 X106.963 Y7.271 E25.97012
G1 X109.505 Y6.981 E26.05521
G1 X112.012 Y6.624 E26.13944
G1 X114.48 Y6.201 E26.22272
G1 X116.985 Y5.699 E26.30769
G1 X119.339 Y5.166 E26.38797
G1 X120.266 Y5.001 E26.41929
G1 X121.364 Y4.913 E26.45592
G1 X121.98 Y4.9 E26.47642
G1 X128.595 Y4.901 E26.69643
G1 X129.309 Y4.912 E26.72018
G1 X130.175 Y4.961 E26.74903
G1 X131.535 Y5.094 E26.79448
G1 X134.139 Y5.317 E26.88141
G1 X136.617 Y5.456 E26.96396
G1 X140.487 Y5.537 E27.0927
G1 X142.959 Y5.502 E27.17493
G1 X145.527 Y5.393 E27.26042
G1 X148.015 Y5.217 E27.34337
G1 X150.507 Y4.97 E27.42667
G1 X153.139 Y4.633 E27.51492
G1 X154.681 Y4.408 E27.56675
G1 X155.914 Y4.301 E27.60791
G1 X156.521 Y4.288 E27.62811
G1 X162.998 Y4.288 E27.84353
G1 X163.864 Y4.3 E27.87234
G1 X164.801 Y4.356 E27.90356
G1 X165.694 Y4.488 E27.93358
G1 X166.642 Y4.716 E27.96601
G1 X167.498 Y5.004 E27.99605
G1 X168.389 Y5.394 E28.0284
G1 X169.211 Y5.846 E28.0596
G1 X169.962 Y6.348 E28.08965
G1 X170.694 Y6.937 E28.1209
G1 X171.459 Y7.681 E28.15639
G1 X173.521 Y9.899 E28.25712
G1 X175.268 Y11.669 E28.33983
G1 X177.127 Y13.448 E28.42541
G1 X178.429 Y14.652 E28.4844
G1 X179.085 Y15.322 E28.51558
G1 X179.68 Y16.048 E28.5468
G1 X180.208 Y16.823 E28.57799
G1 X180.666 Y17.643 E28.60923
G1 X181.047 Y18.493 E28.64021
G1 X181.234 Y19.005 E28.65834
G1 X182.207 Y21.89 E28.75961
G1 X183.087 Y24.267 E28.84391
G1 X184.033 Y26.615 E28.92811
G1 X185.047 Y28.94 E29.01247
G1 X186.11 Y31.199 E29.09551
G1 X187.258 Y33.472 E29.1802
G1 X188.447 Y35.67 E29.26332
G1 X189.723 Y37.875 E29.34805
G1 X191.051 Y40.028 E29.43219
G1 X192.438 Y42.141 E29.51626
G1 X193.414 Y43.538 E29.57294
G1 X193.785 Y44.086 E29.59495
G1 X194.274 Y44.887 E29.62616
G1 X194.69 Y45.728 E29.65737
G1 X195.019 Y46.569 E29.6874
G1 X195.283 Y47.47 E29.71863
G1 X195.472 Y48.432 E29.75124
G1 X195.585 Y49.682 E29.79298
G1 X195.6 Y50.33 E29.81454
G1 X195.599 Y184.421 E34.27443
G1 X195.588 Y185.161 E34.29904
G1 X195.533 Y186.097 E34.33023
G1 X195.411 Y186.933 E34.35833
G1 X195.259 Y187.749 E34.38593
G1 X194.808 Y190.385 E34.47488
G1 X194.451 Y192.898 E34.5593
G1 X194.17 Y195.382 E34.64245
G1 X193.952 Y197.936 E34.7277
G1 X193.812 Y200.44 E34.81112
G1 X193.741 Y202.975 E34.89547
G1 X193.741 Y205.499 E34.97941
G1 X193.813 Y208.007 E35.06286
G1 X193.978 Y210.587 E35.14885
G1 X194.058 Y211.986 E35.19546
G1 X194.083 Y212.618 E35.2165
G1 X194.086 Y213.366 E35.24137
G1 X194.055 Y214.091 E35.26551
G1 X194.014 Y214.677 E35.28505
G1 X193.949 Y215.32 E35.30654
G1 X193.858 Y215.953 E35.32781
G1 X193.756 Y216.551 E35.34799
G1 X193.59 Y217.342 E35.37487
G1 X193.426 Y217.977 E35.39668
G1 X193.274 Y218.51 E35.41512
G1 X193.099 Y219.063 E35.43441
G1 X192.834 Y219.794 E35.46027
G1 X192.607 Y220.361 E35.48059
G1 X192.314 Y221.027 E35.50479
G1 X192.012 Y221.639 E35.52749
G1 X191.74 Y222.156 E35.54692
G1 X191.413 Y222.731 E35.56892
G1 X191.016 Y223.36 E35.59366
G1 X190.719 Y223.803 E35.61139
G1 X190.367 Y224.297 E35.63157
G1 X189.84 Y224.972 E35.66005
G1 X189.418 Y225.477 E35.68194
G1 X188.72 Y226.233 E35.71616
G1 X188.157 Y226.786 E35.74241
G1 X187.679 Y227.226 E35.76402
G1 X187.173 Y227.652 E35.78602
G1 X186.628 Y228.085 E35.80917
G1 X186.038 Y228.52 E35.83355
G1 X185.474 Y228.896 E35.8561
G1 X184.967 Y229.216 E35.87604
G1 X184.465 Y229.513 E35.89544
G1 X183.823 Y229.856 E35.91965
G1 X183.219 Y230.153 E35.94203
G1 X182.625 Y230.423 E35.96374
G1 X181.945 Y230.697 E35.98812
G1 X181.438 Y230.884 E36.00609
G1 X180.635 Y231.148 E36.03421
G1 X180.11 Y231.297 E36.05236
G1 X179.492 Y231.454 E36.07357
G1 X178.83 Y231.599 E36.09611
G1 X178.126 Y231.722 E36.11988
G1 X177.443 Y231.821 E36.14283
G1 X176.338 Y231.922 E36.17974
G1 X175.558 Y231.952 E36.2057
G1 X174.886 Y231.957 E36.22805
G1 X174.128 Y231.928 E36.25328
G1 X173.563 Y231.89 E36.27211
G1 X172.889 Y231.824 E36.29464
G1 X170.116 Y231.456 E36.38768
G1 X167.615 Y231.193 E36.47132
G1 X165.112 Y231.001 E36.55481
G1 X162.57 Y230.878 E36.63946
G1 X160.055 Y230.828 E36.72313
G1 X157.509 Y230.849 E36.80781
G1 X155.003 Y230.941 E36.89121
G1 X152.457 Y231.106 E36.97607
G1 X149.983 Y231.337 E37.05872
G1 X146.751 Y231.743 E37.16706
G1 X146.07 Y231.84 E37.18994
G1 X145.446 Y231.908 E37.21081
G1 X144.773 Y231.955 E37.23325
G1 X144.14 Y231.98 E37.25432
G1 X143.375 Y231.982 E37.27977
G1 X142.659 Y231.952 E37.3036
G1 X142.085 Y231.912 E37.32274
G1 X141.439 Y231.846 E37.34434
G1 X140.781 Y231.751 E37.36645
G1 X140.24 Y231.658 E37.38471
G1 X137.696 Y231.256 E37.47037
G1 X135.19 Y230.933 E37.55441
G1 X132.669 Y230.68 E37.63868
G1 X130.127 Y230.497 E37.72345
G1 X127.632 Y230.388 E37.80651
G1 X125.077 Y230.349 E37.8915
G1 X122.563 Y230.382 E37.97512
G1 X120.033 Y230.487 E38.05934
G1 X117.508 Y230.663 E38.14353
G1 X115.007 Y230.909 E38.22711
G1 X114.242 Y231.006 E38.25276
G1 X112.823 Y231.171 E38.30027
G1 X112.034 Y231.232 E38.3266
G1 X111.285 Y231.261 E38.35153
G1 X110.608 Y231.266 E38.37404
G1 X109.85 Y231.237 E38.39927
G1 X109.287 Y231.199 E38.41804
G1 X108.62 Y231.133 E38.44033
G1 X105.836 Y230.764 E38.53374
G1 X103.356 Y230.504 E38.61668
G1 X100.813 Y230.308 E38.70151
G1 X98.298 Y230.187 E38.78525
G1 X95.774 Y230.137 E38.86922
G1 X93.228 Y230.158 E38.9539
G1 X90.723 Y230.25 E39.03728
G1 X88.153 Y230.416 E39.12293
G1 X85.712 Y230.645 E39.20448
G1 X82.383 Y231.065 E39.31608
G1 X81.714 Y231.16 E39.33855
G1 X80.641 Y231.258 E39.37439
G1 X79.861 Y231.288 E39.40035
